**kern	**kern	**dynam
*part1	*part1	*part1
*staff2	*staff1	*
*I"Piano	*	*
*clefF4	*clefG2	*
*k[b-e-a-d-]	*k[b-e-a-d-]	*
=1	=1	=1
*	*^	*
8AAA-L 8AA-	4a- 4cc 4aa-	4rgyy	p
8E-	.	.	.
8A- 8c	4r	4ryy	.
8E-	.	.	.
8A- 8c	8ee-L	4cc	.
8E-J	8cccJ	.	.
*	*v	*v	*
=	=	=
8EE-L 8E-	8ccL 8ee- 8ccc	.
8E-	8b- 8dd- 8bb-	.
8G 8B- 8d-	8an 8cc 8aan	.
8E-	8b- 8dd- 8bb-	.
8G 8B- 8d-	8a 8cc 8aa	.
8E-J	8b-J 8dd- 8bb-	.
=	=	=
8AAA-L 8AA-	4dd- 4ff 4ddd-	.
8E-	.	.
8A- 8c	4cc 4ee- 4ccc	.
8E-	.	.
8A- 8c	8a-L 8cc 8aa-	.
8E-J	8ccJ 8ee- 8ccc	.
=	=	=
8EE-L 8E-	8ccL 8ee- 8ccc	.
8E-	8b- 8dd- 8bb-	.
8G 8B- 8d-	8an 8cc 8aan	.
8E-	8b- 8dd- 8bb-	.
8G 8B- 8d-	8cc 8ee- 8ccc	.
8E-J	8b-J 8dd- 8bb-	.
=	=	=
8A-L 8c	4a- 4cc 4aa-	.
8EE-	.	.
8AA-	4r	.
8C	.	.
8E-	4r	.
8A-J	.	.
=	=	=
4c	4g-X 4a-	p
4d-	4f 4a-	.
8dnL	8a-L 8b-	.
8e-J	8gnJ 8b-	.
=	=	=
8enL	8gL 8dd-	.
8fJ	8a-J 8cc	.
*clefG2	*	*
4r	4r	.
8ddnL	8aa-L 8bb-	.
8ee-XJ	8ggJ 8bb-	.
=	=	=
*-	*-	*-
!!!system-decoration: {(s1,s2)}
